lib/brands/icons/tik-tok.svg

<svg xmlns="http://www.w3.org/2000/svg" fill="none" aria-hidden="true" viewBox="0 0 48 48"><g id="tik-tok-Icon"><g id="Tik Tok"><path id="Path" fill="#00F2EA" fill-rule="evenodd" d="M20.8718 20.6001V19.352C20.4386 19.2906 20.0017 19.2588 19.5642 19.2567C14.214 19.2567 9.86133 23.6102 9.86133 28.9604C9.86133 32.2423 11.5016 35.1475 14.0037 36.9044C12.3283 35.1126 11.3969 32.7509 11.3982 30.2979C11.3982 25.0239 15.6271 20.7233 20.8718 20.6001" clip-rule="evenodd"/><path id="Shape" fill="#00F2EA" fill-rule="evenodd" d="M21.1007 34.729C23.4878 34.729 25.4351 32.8301 25.5238 30.4635L25.5319 9.33755H29.3913C29.3089 8.89646 29.2673 8.44872 29.2667 8H23.9957L23.9869 29.1267C23.899 31.4925 21.9509 33.3907 19.5646 33.3907C18.8481 33.391 18.1425 33.2165 17.5088 32.8821C17.9179 33.4529 18.4571 33.9182 19.0817 34.2393C19.7063 34.5605 20.3984 34.7283 21.1007 34.729V34.729ZM36.6012 16.5083V15.3341C35.1828 15.3355 33.7949 14.9229 32.6076 14.1469C33.6486 15.3454 35.0501 16.1739 36.602 16.5083" clip-rule="evenodd"/><path id="Shape_2" fill="#FF004F" fill-rule="evenodd" d="M32.6066 14.146C31.4431 12.8147 30.8022 11.1063 30.8029 9.33819H29.3907C29.5735 10.3155 29.9528 11.2455 30.5056 12.0719C31.0584 12.8983 31.7731 13.6039 32.6066 14.146V14.146ZM19.564 24.5283C18.3892 24.5297 17.2629 24.997 16.4322 25.8277C15.6015 26.6584 15.1342 27.7847 15.1328 28.9595C15.1336 29.7676 15.3552 30.5602 15.7738 31.2516C16.1923 31.9428 16.7918 32.5066 17.5074 32.882C16.9625 32.1306 16.6691 31.226 16.669 30.2978C16.6702 29.1229 17.1374 27.9964 17.9681 27.1655C18.7988 26.3347 19.9252 25.8673 21.1002 25.8659C21.5568 25.8659 21.9943 25.9414 22.4076 26.0711V20.6894C21.9745 20.6281 21.5376 20.5962 21.1002 20.5941C21.0232 20.5941 20.9477 20.5985 20.8715 20.6V24.7336C20.4486 24.599 20.0077 24.5298 19.564 24.5283" clip-rule="evenodd"/><path id="Path_2" fill="#FF004F" fill-rule="evenodd" d="M36.6008 16.5082V20.6052C33.8671 20.6052 31.3349 19.7308 29.2666 18.2467V28.9596C29.2666 34.3097 24.9147 38.6625 19.5645 38.6625C17.4969 38.6625 15.5797 38.0102 14.0039 36.9035C14.9099 37.8805 16.0078 38.6598 17.229 39.1927C18.4502 39.7255 19.7683 40.0004 21.1006 40C26.4508 40 30.8036 35.6473 30.8036 30.2979V19.585C32.9402 21.1214 35.506 21.9465 38.1377 21.9435V16.671C37.61 16.671 37.097 16.6138 36.6008 16.5075" clip-rule="evenodd"/><path id="Path_3" fill="white" fill-rule="evenodd" d="M29.2666 28.9595V18.2467C31.4032 19.7832 33.9691 20.6083 36.6008 20.6051V16.5082C35.0492 16.1735 33.6478 15.3447 32.6072 14.1461C31.7738 13.604 31.059 12.8983 30.5062 12.0719C29.9534 11.2455 29.5741 10.3155 29.3912 9.3382H25.5318L25.5237 30.4642C25.435 32.83 23.4877 34.729 21.1006 34.729C20.3983 34.7282 19.7062 34.5603 19.0816 34.2392C18.4571 33.918 17.9179 33.4528 17.5087 32.882C16.7929 32.5068 16.1932 31.943 15.7745 31.2517C15.3559 30.5604 15.1341 29.7678 15.1333 28.9595C15.1347 27.7847 15.6019 26.6584 16.4327 25.8277C17.2633 24.997 18.3897 24.5297 19.5645 24.5283C20.0203 24.5283 20.4579 24.6031 20.872 24.7336V20.6C15.6273 20.7231 11.3984 25.0238 11.3984 30.2978C11.3984 32.8483 12.3893 35.1702 14.0039 36.9042C15.6316 38.05 17.5739 38.6642 19.5645 38.6624C24.9147 38.6624 29.2666 34.3097 29.2666 28.9595" clip-rule="evenodd"/></g></g></svg>

<svg xmlns="http://www.w3.org/2000/svg" fill="none" aria-hidden="true" viewBox="0 0 48 48"><g fill-rule="evenodd" clip-rule="evenodd"><path fill="#00F2EA" d="M20.872 20.6v-1.248a9.648 9.648 0 0 0-1.308-.095c-5.35 0-9.703 4.353-9.703 9.703a9.697 9.697 0 0 0 4.143 7.944 9.665 9.665 0 0 1-2.606-6.606c0-5.274 4.23-9.575 9.474-9.698"/><path fill="#00F2EA" d="M21.1 34.729a4.434 4.434 0 0 0 4.424-4.265l.008-21.126h3.86A7.337 7.337 0 0 1 29.266 8h-5.271l-.01 21.127a4.432 4.432 0 0 1-4.421 4.264 4.4 4.4 0 0 1-2.056-.509A4.424 4.424 0 0 0 21.1 34.73Zm15.501-18.22v-1.175a7.286 7.286 0 0 1-3.993-1.187 7.338 7.338 0 0 0 3.994 2.361"/><path fill="#FF004F" d="M32.607 14.146a7.302 7.302 0 0 1-1.804-4.808H29.39a7.346 7.346 0 0 0 3.216 4.808ZM19.564 24.528a4.437 4.437 0 0 0-4.431 4.431 4.434 4.434 0 0 0 2.374 3.923 4.403 4.403 0 0 1-.838-2.584 4.437 4.437 0 0 1 4.431-4.432c.457 0 .894.075 1.308.205V20.69a9.661 9.661 0 0 0-1.308-.095c-.077 0-.152.005-.229.006v4.134a4.36 4.36 0 0 0-1.307-.206"/><path fill="#FF004F" d="M36.6 16.508v4.097c-2.733 0-5.265-.874-7.333-2.358V28.96c0 5.35-4.352 9.703-9.703 9.703a9.644 9.644 0 0 1-5.56-1.76A9.676 9.676 0 0 0 21.1 40c5.35 0 9.703-4.353 9.703-9.702V19.585a12.538 12.538 0 0 0 7.334 2.358v-5.272a7.34 7.34 0 0 1-1.537-.163"/><path fill="#fff" d="M29.267 28.96V18.246a12.536 12.536 0 0 0 7.334 2.358v-4.097a7.338 7.338 0 0 1-3.994-2.362 7.349 7.349 0 0 1-3.216-4.808h-3.86l-.007 21.126A4.434 4.434 0 0 1 21.1 34.73a4.427 4.427 0 0 1-3.592-1.847 4.435 4.435 0 0 1-2.376-3.922 4.436 4.436 0 0 1 4.431-4.432c.456 0 .894.075 1.308.206V20.6c-5.245.123-9.474 4.424-9.474 9.698 0 2.55.991 4.872 2.606 6.606a9.645 9.645 0 0 0 5.56 1.758c5.35 0 9.703-4.352 9.703-9.703"/></g></svg>
